X: 1
T: Niel Gow's Lamentation for Dr. James Moray of Abercairney
B: Skye p.157; BSFC V-1; Hunter #9
B: BSFC Tune Book V-1 and XXXII-6
B: BSFC Session Tune Book 2016 p.83
C: Niel Gow
Z: John Chambers <jc:trillian.mit.edu>
M: 4/4
L: 1/8
Q: "Very Slow"
K: G
% - - - - - - - - - -
"^A"[|] ({C}B,>A,) \
| "G"(G,>B,) (DG) ("C"EG) "G"(DG) | "D"A>B "G"c/B/A/G/ "C"E2 EF/G/ \
| "G"(G,>B,) (DG) "C"EG "G"D(g/e/) | "G/D"dG "D7"d/c/B/A/ "G"G2 G :|
"B1"[|] e \
| "G"de/f/ (gd) "C"ed "G"gB | "C"c(a/c/) "G"B(g/B/) "D"A2 A>B \
"B2"[|] e \
| "G"(G,>B,) (DG) "C"EG "G"D(g/e/) | "G"dG "D"d/c/B/A/ "G"G2 G |]
e \
| "G"(de/f/) (gd) "C"({f}ed) "G"(gB) | "C"c/B/c/a/ "G"B/A/B/g/ "Am"A2 ("D"AB/c/) \
| "G"(e/d/)c/B/ "C"(d/c/)B/A/ "G"(c/B/)A/G/ "D"(B/A/)G/F/ | "C"(A/G/)F/E/ "D7"D/E/D/B,/ "G"G,2 "_fine"G, |]
% - - - - - - - - - -
